__todo__/arm.svg

<svg preserveAspectRatio="xMidYMid" viewBox="0 0 512 156" xmlns="http://www.w3.org/2000/svg"><path d="m309.550689 3.89505394h34.30794v13.65823966c8.741835-11.21792017 22.230193-17.69777896 36.450832-17.51111866 15.712794-.2498903 30.327061 8.03484174 38.182464 21.64538766 12.25129-17.51111862 30.823032-21.64538766 43.766974-21.64538766 17.857445 0 33.615287 8.39841041 42.035343 23.11727406 2.792255 4.913503 7.705758 15.7578422 7.705758 37.1218398v91.0621462h-34.329585v-81.2567856c0-16.4504946-1.753276-23.117274-3.160226-26.2558552-2.164539-5.6061554-7.359432-12.9872326-19.610722-12.9872326-8.116378.147839-15.671834 4.1709784-20.325019 10.8226938-5.952481 8.3984104-6.645134 21.0176715-6.645134 33.6152871v76.0618925h-34.329585v-81.2567856c0-16.4504946-1.753276-23.117274-3.160226-26.2558552-2.164539-5.6061554-7.359432-12.9872326-19.610721-12.9872326-8.109604.1512049-15.657055 4.1743664-20.303374 10.8226938-5.952482 8.3984104-6.666779 21.0176715-6.666779 33.6152871v76.0618925h-34.30794zm-118.833178 0h34.329585v13.31191346c4.100506-4.8221165 8.945214-8.95802124 14.350892-12.25128946 6.416388-3.5507715 13.692123-5.25168993 21.017671-4.913503 9.467339-.21616709 18.807328 2.21252998 26.970153 7.0131056l-14.091147 31.16935826c-5.177699-3.4692297-11.278755-5.3018089-17.511119-5.2598292-7.359432 0-14.718863 1.0389786-21.363998 8.0520842-9.459034 10.1516868-9.459034 24.1562526-9.459034 33.9616133v76.3649279h-34.221358zm-155.7385645 74.24367976c0 25.5632023 16.1041684 46.9272003 40.9747188 46.9272003 21.6453877 0 41.6673717-15.757842 41.6673717-46.5808741 0-32.2299823-19.9570478-47.6198529-41.6673717-47.6198529-24.8705504 0-40.9747188 21.0176714-40.9747188 47.2735267m80.5424875-74.24367976h34.394521v147.44838106h-34.372876v-15.411516c-10.975523 12.920552-27.1627663 20.243731-44.1132997 19.957047-45.4553141 0-71.4297793-37.814492-71.4297793-78.4428847 0-47.9878245 32.9226346-77.40390636 71.7977509-77.40390636 17.1099953-.36537541 33.3711701 7.43966721 43.7886191 21.01767146z" fill="#008fbe"/></svg>

<?xml version="1.0" encoding="UTF-8"?>
<svg width="512px" height="156px" viewBox="0 0 512 156" version="1.1" xmlns="http://www.w3.org/2000/svg" preserveAspectRatio="xMidYMid">
    <title>Arm</title>
    <g>
        <path d="M309.550689,3.89505394 L343.858629,3.89505394 L343.858629,17.5532936 C352.600464,6.33537343 366.088822,-0.144485358 380.309461,0.0421749364 C396.022255,-0.207715358 410.636522,8.07701668 418.491925,21.6875626 C430.743215,4.17644398 449.314957,0.0421749364 462.258899,0.0421749364 C480.116344,0.0421749364 495.874186,8.44058535 504.294242,23.159449 C507.086497,28.072952 512,38.9172912 512,60.2812888 L512,151.343435 L477.670415,151.343435 L477.670415,70.0866494 C477.670415,53.6361548 475.917139,46.9693754 474.510189,43.8307942 C472.34565,38.2246388 467.150757,30.8435616 454.899467,30.8435616 C446.783089,30.9914006 439.227633,35.01454 434.574448,41.6662554 C428.621967,50.0646658 427.929314,62.6839269 427.929314,75.2815425 L427.929314,151.343435 L393.599729,151.343435 L393.599729,70.0866494 C393.599729,53.6361548 391.846453,46.9693754 390.439503,43.8307942 C388.274964,38.2246388 383.080071,30.8435616 370.828782,30.8435616 C362.719178,30.9947665 355.171727,35.017928 350.525408,41.6662554 C344.572926,50.0646658 343.858629,62.6839269 343.858629,75.2815425 L343.858629,151.343435 L309.550689,151.343435 L309.550689,3.89505394 Z M190.717511,3.89505394 L225.047096,3.89505394 L225.047096,17.2069674 C229.147602,12.3848509 233.99231,8.24894616 239.397988,4.95567794 C245.814376,1.40490644 253.090111,-0.29601199 260.415659,0.0421749364 C269.882998,-0.173992151 279.222987,2.25470492 287.385812,7.05528054 L273.294665,38.2246388 C268.116966,34.7554091 262.01591,32.9228299 255.783546,32.9648096 C248.424114,32.9648096 241.064683,34.0037882 234.419548,41.0168938 C224.960514,51.1685806 224.960514,65.1731464 224.960514,74.9785071 L224.960514,151.343435 L190.739156,151.343435 L190.717511,3.89505394 Z M34.9789465,78.1387337 C34.9789465,103.701936 51.0831149,125.065934 75.9536653,125.065934 C97.599053,125.065934 117.621037,109.308092 117.621037,78.4850599 C117.621037,46.2550776 97.6639892,30.865207 75.9536653,30.865207 C51.0831149,30.865207 34.9789465,51.8828784 34.9789465,78.1387337 M115.521434,3.89505394 L149.915955,3.89505394 L149.915955,151.343435 L115.543079,151.343435 L115.543079,135.931919 C104.567556,148.852471 88.3803127,156.17565 71.4297793,155.888966 C25.9744652,155.888966 0,118.074474 0,77.4460813 C0,29.4582568 32.9226346,0.0421749364 71.7977509,0.0421749364 C88.9077462,-0.323200471 105.168921,7.48184215 115.58637,21.0598464 L115.521434,3.89505394 Z" fill="#008FBE"></path>
    </g>
</svg>
